X:4
%%etbk:tnset id:2,pos:1,rep:3
%%etbk:tube1 http://www.youtube.com/embed/pe__q4zIrAY
T: Lucy Farr's Highland Fling
%%etbk:site1 http://www.thesession.org/tunes/display/4188
N: http://www.thesession.org/discussions/display/28476/
Z: Piano Box Version by Martin Fleischmann (www.boxplayer.ch)
M: 4/4
L: 1/8
R: Fling
K:Fmaj
|:!3!A2 AG A!5!ccA | !2!G3 F GA!4!BG | !3!A3 G AccA | !2!GFGA F4 :|
!3!A!4!c !3!c!4!c !5!d2 !4!c!3!A | !1!F!3!A!5!cA !2!GAFG| Ac cc d2 !4!c!3!A | GFGA F4  |
!3!A2 !5!c!5!c A2 cc | !3!A2 !5!c!3!A !4!B!2!G !3!A!1!F | !2!G3 F GA BG | cAGA F4 |


